!!!OTL-incipit: HABE ICHS NICHT LANG GESAT
!!!ARE: Europa, Mitteleuropa, Deutschland, Sachsen
!!!SCT: Z0309
!!!YEM: Copyright 1995, estate of Helmut Schaffrath.
**kern	**text
*ICvox	*
*M3/8	*
*k[f#]	*
*G:	*
=1	=1
!LO:TX:a:t=Sächſiſch.	!
{16g	Ha-
16b	-be
8dd	ich's
8dd	nicht
=2	=2
16gg	lang
16ee	ge-
8dd	-ſat,
8r}	.
=3	=3
{16cc	daß
32eeL	kein
32ccJ	.
8a	Menſche
8cc	.
=4	=4
8b	nach
8f#	mir
8g}	frat.
=5	=5
{16g	Ha-
16b	-be
8dd	ich's
8dd	nicht
=6	=6
16gg	lang
16ee	ge-
8dd	-ſat,
8r}	.
=7	=7
{16cc	daß
32eeL	kein
32ccJ	.
8a	Menſche
8cc	.
=8	=8
8b	nach
8f#	mir
8g}	frat.
=9	=9
{16cc	Wem
16a	ſoll
8f#	ich's
8d	denn
=10	=10
16g	im-
16b	-mer
8dd	klag'n?
8r}	.
=11	=11
{16cc	Al-
16a	-les,
8f#	al-
8d	-les
=12	=12
16g	kreit
16b	än
8dd	Mann,
8r}	.
=13	=13
{16g	und
16dd	ich
8dd	muß
8r	.
=14	=14
16g	mit
16ee	Verdruß
8ee	.
8r}	.
=15	=15
{16dd	das
16b	bei
16cc	gu-
16a	-ten
16b/	Ta-
16g	-gen
=16	=16
16a	ſehn
16f#	und
8g	dar-
8g}	-ben.
==	==
!!!AGN: Lyrisches Lied, Romanze, Verlassenheit
!!!ONB: ESAC (Essen Associative Code) Database: ZUCCAL
!!!AMT: simple triple
!!!AIN: vox
!!!EED: Helmut Schaffrath
!!!EEV: 1.0
!!!GTL: IV. Lyrische Lieder.
!!!URL-scan: https://www.digitale-sammlungen.de/de/view/bsb11160571?page=556
!!!ENC: Anna Maria Matuszewska
!!!EEV: 2025/01/31
*-	*-
